!!!COM: Haydn, Franz Joseph
!!!OTL: String Quartet in E-flat Major
!!!OPS: Opus 50
!!!ONM: No. 3
!!!OMD: Finale
!!!OMV: 4
!!!SCT: H III:46
!!!SCA: Thematisch-bibliographisches Werkevererzeichnis (A. van Hoboken)
!!!YOR: Trautwein Edition
!!!ENC: Frances Bennion
!!!CDT: 1732/3/31/-1809/5/31/
!!!CNT: Oesterreich
!!!YEC: Copyright (c) 1994, 2000 Center for Computer Assisted Research in the Humanities
!!!YEM: Rights to all derivative editions reserved.
!!!YEM: Refer to licensing agreement for further details.
!!!YEN: United States of America
**kern	**kern	**kern	**kern
*k[b-e-a-]	*k[b-e-a-]	*k[b-e-a-]	*k[b-e-a-]
*E-:	*E-:	*E-:	*E-:
*clefF4	*clefC3	*clefG	*clefG
*M2/4	*M2/4	*M2/4	*M2/4
4.r	4.r	4.r	4.r
8r	8r	8r	8B-
=1	=1	=1	=1
4E-	8r	8r	4.e-
.	8G	8B-	.
4r	8G	8B-	.
.	8F	8A-	8f
=2	=2	=2	=2
2r	4E-	4G	8g
.	.	.	8e-
.	4r	4r	8e-
.	.	.	8e
=3	=3	=3	=3
4BB-	8r	8r	4.f
.	8A-	8f	.
4r	8A-	8f	.
.	8G	8e-	8g
=4	=4	=4	=4
2r	4F	4d	8a-
.	.	.	8f
.	4r	4r	8f
.	.	.	8f#
=5	=5	=5	=5
4EE-	8r	8r	4.g
.	8G	8B-	.
4r	8G	8B-	.
.	8E-	8G	8b-
=6	=6	=6	=6
4BB-	8r	8r	4.d
.	8F	8A-	.
4r	8F	8A-	.
.	8D	8f	8a-
=7	=7	=7	=7
4E-	8r	8r	4.g
.	8G	8B-	.
4r	8G	8B-	.
.	8E-	8G	8b-
=8	=8	=8	=8
4BB-	8r	8r	4.d
.	8F	8A-	.
4r	8F	8A-	.
.	8D	8f	8a-
=9	=9	=9	=9
8E-	8r	8r	8g
8r	8E-	8g	8r
8C	8r	8r	8a-
8r	8e-	8a-	8r
=10	=10	=10	=10
8GG	8r	8r	8b-
8r	8e-	8b-	8r
8AA-	8r	8r	8.cc
8r	8e-	8cc	.
.	.	.	32dd
.	.	.	32ee-
=11	=11	=11	=11
[2BB-	[2B-	4.e-	4.g
.	.	16f	16a-
.	.	16e-	16g
=12	=12	=12	=12
4BB-]	4B-]	4d	4f
4r	4r	4r	8r
.	.	.	8B-
=13	=13	=13	=13
4E-	8r	8r	4.e-
.	8A-	8c	.
4r	8G	8B-	.
.	8r	8r	8f
=14	=14	=14	=14
4E-	8r	8r	8g
.	8A-	8c-	8e-
4r	8G	8B-	8e-
.	8r	8r	8e
=15	=15	=15	=15
4BB-	8r	8r	4.f
.	8A	8c#	.
4r	8B-	8d	.
.	8r	8r	8g
=16	=16	=16	=16
4BB-	8r	8r	8a-
.	8c-	8e-	8f
4r	8B-	8d	8f
.	8r	8r	8f#
=17	=17	=17	=17
4.E-	4.r	8r	4.g
.	.	8A	.
.	.	8B-	.
8E-	8G	8g	8b-
=18	=18	=18	=18
4.F	4A-	8r	4.d
.	.	8c-	.
.	8r	8B-	.
8BB-	8D	8f	8a-
=19	=19	=19	=19
4.E-	4E-	8r	4.g
.	.	8A	.
.	8r	8B-	.
8E-	8G	8g	8b-
=20	=20	=20	=20
4.F	4A-	8r	4.d
.	.	8c-	.
.	8r	8B-	.
8BB-	8D	8f	8a-
=21	=21	=21	=21
8E-	8E-	8r	8g
8r	8e-	8g	8r
8C	8r	8r	8a-
8r	8e-	8a-	8r
=22	=22	=22	=22
8GG	8r	8r	8b-
8r	8e-	8b-	8r
8AA-	8r	8r	8.cc
8r	8e-	8cc	.
.	.	.	32dd
.	.	.	32ee-
=23	=23	=23	=23
2BB-	4B-	4G	4e-
.	4D	4A-	8.f
.	.	.	16e-
=24	=24	=24	=24
4E-	4E-	4G	4e-
4EE-	4r	4r	8r
.	.	.	8b-
=25	=25	=25	=25
2r	8r	8r	4.ee-
.	8g	8b-	.
.	8g	8b-	.
.	8f	8a-	8ff
=26	=26	=26	=26
2r	4e-	4g	8gg
.	.	.	16ee-
.	.	.	16ff
.	4r	4r	16gg
.	.	.	16aa-
.	.	.	16bb-
.	.	.	16ccc
=27	=27	=27	=27
8r	8r	2r	4.bb-
8G	8b-	.	.
8G	8b-	.	.
8F	8a-	.	8ddd
=28	=28	=28	=28
4E-	4g	2r	8eee-
.	.	.	16ggg
.	.	.	16fff
4r	4r	.	16eee-
.	.	.	16ddd
.	.	.	16ccc
.	.	.	16bb-
=29	=29	=29	=29
2r	8r	8r	4.aa-
.	8f	8a-	.
.	8f	8a-	.
.	8g	8b-	8gg
=30	=30	=30	=30
2r	4.a-	2cc	8ff
.	.	.	16ccc
.	.	.	16bb-
.	.	.	16aa-
.	.	.	16gg
.	8a	.	16ff
.	.	.	16ee-
=31	=31	=31	=31
4.r	4.b-	4.b-	8dd
.	.	.	16ff
.	.	.	16ee-
.	.	.	16dd
.	.	.	16cc
8BB-	8d	8f	16b-
.	.	.	16a-
=32	=32	=32	=32
4.E-	8e-	8g	4.g
.	4G	16b-	.
.	.	16a-	.
.	.	16g	.
.	.	16f	.
8F	8A-	16e-	8r
.	.	16d	.
=33	=33	=33	=33
8G	8B-	4e-	8r
8E-	4g	.	16gg
.	.	.	16ff
8E-	.	4r	16ee-
.	.	.	16dd
8E	8G	.	16cc
.	.	.	16b-
=34	=34	=34	=34
4.F	8A	8r	4a
.	4a	16cc	.
.	.	16b-	.
.	.	16a	4r
.	.	16g	.
8G	8b-	16f	.
.	.	16e	.
=35	=35	=35	=35
8A	8cc	4f	8r
8F	4A	.	16ccc
.	.	.	16bb-
8F	.	4r	16aa
.	.	.	16gg
8A	8c	.	16ff
.	.	.	16ee-
=36	=36	=36	=36
4.B-	8B-	8r	4dd
.	4d	16ff	.
.	.	16ee-	.
.	.	16dd	4r
.	.	16cc	.
8c	8e-	16b-	.
.	.	16a	.
=37	=37	=37	=37
8d	8f	8b-	8r
8B-	16f	8dd	4bb-
.	16e-	.	.
8B-	16d	[4ff	.
.	16f	.	.
8B	16e-	.	8aa-
.	16d	.	.
=38	=38	=38	=38
4.c	8c	4ff]	8gg
.	8g	.	8g
.	8cc	8ee-	8gg
8d	8b	8dd	8gg
=39	=39	=39	=39
8e-	8cc	16cc	[2gg
.	.	16dd	.
8c	16e-	16ee-	.
.	16f	16dd	.
8e-	8g	16cc	.
.	.	16dd	.
8e	8e	16b-	.
.	.	16cc	.
=40	=40	=40	=40
4f	4.f	4.a	4gg]
4r	.	.	8ff
.	8g	8b-	8ee
=41	=41	=41	=41
2r	8a	[2cc	4ff
.	8f	.	.
.	8f	.	4ee-
.	8f#	.	.
=42	=42	=42	=42
2r	8g	4cc]	2dd
.	8d	.	.
.	8d	[4b-	.
.	8e-	.	.
=43	=43	=43	=43
2r	8f	4b-]	2cc
.	8c	.	.
.	8c	[4a-	.
.	8d	.	.
=44	=44	=44	=44
8r	4e-	4a-]	4b-
8E-	.	.	.
8C	8g	4g	[4ee-
8BB-	16a	.	.
.	16b-	.	.
=45	=45	=45	=45
8AA	4cc	2f	4ee-]
8F	.	.	.
8BB-	[4b-	.	4dd
8B-	.	.	.
=46	=46	=46	=46
8E-	8b-]	4g	4cc
8c	8e-	.	.
8FF	8c	8e-	8a
8F	16B-	16d	16g
.	16c	16e-	16a
=47	=47	=47	=47
8BB-	4B-	4d	4b-
8B-	.	.	.
4r	4r	4r	8r
.	.	.	8ff
=48	=48	=48	=48
2r	8r	8r	4.bb-
.	8ee-	8gg	.
.	8dd	8ff	.
.	8r	8r	8ccc
=49	=49	=49	=49
2r	8r	8r	8ddd
.	8ee-	8gg-	8bb-
.	8dd	8ff	8bb-
.	8r	8r	8bb
=50	=50	=50	=50
2r	8r	8r	4.ccc
.	8ee	8bb-	.
.	8ff	8aa	.
.	8r	8r	8ddd
=51	=51	=51	=51
2r	8r	8r	8eee-
.	8ee	8bb-	8ccc
.	8ff	8aa	8ccc
.	8r	8a	8ccc#
=52	=52	=52	=52
2r	8r	4b-	8ddd
.	8f#	.	8aa
.	8g	8r	8bb-
.	8r	8d	8ff#
=53	=53	=53	=53
8r	4.r	4e-	8gg
8B	.	.	8dd
8c	.	8r	8ee-
8d	8a-	8f	8b
=54	=54	=54	=54
8e-	8g	8e-	8cc
8B	8f	8d	8dd
8c	8e-	8c	8ee-
8d	8a-	8f	8b
=55	=55	=55	=55
8e-	8g	8e-	8cc
8B	8f	8d	8dd
8c	8e-	8c	8ee-
8d	8f	8a-	8b
=56	=56	=56	=56
4e-	4e-	4g	8cc
.	.	.	8dd
4r	4r	4r	8ee-
.	.	.	8ee
=57	=57	=57	=57
2r	2r	2r	8ff
.	.	.	8ff#
.	.	.	8aa
.	.	.	8gg
=58	=58	=58	=58
2r	2r	2r	8ff
.	.	.	8ee-
.	.	.	8dd
.	.	.	8cc
=59	=59	=59	=59
8r	8r	8r	8b
8BB-	8B-	8b-	8b-
8AA	8A	8a	8a
8AA-	8A-	8a-	8a-
=60	=60	=60	=60
8GG	8G	8g	8g
8GG-	8G-	8g-	8g-
8FF	8F	8f	8f
8EE	8E	8e	8e
=61	=61	=61	=61
8FF	8F	8f	8f
8F	8b-	8dd	8b-
8F	8b-	8dd	8dd
8F	8b-	8dd	8ff
=62	=62	=62	=62
8F	8b-	8dd	8bb-
8F	8b-	8dd	8ddd
8F	8b-	8dd	8fff
8F	8b-	8dd	8bb-
=63	=63	=63	=63
8F	4.e-	4.a	[2ccc
8F	.	.	.
8F	.	.	.
8F	8d	8b-	.
=64	=64	=64	=64
8F	8c	8cc	2ccc]
8F	8e-	8a	.
8F	8e-	8a	.
8F	8e-	8a	.
=65	=65	=65	=65
8BB-	4.d	4.b-	[2bb-
8B-	.	.	.
8BB-	.	.	.
8r	8e-	8cc	.
=66	=66	=66	=66
2r	8f	8dd	2bb-_
.	8d	8b-	.
.	8d	8b-	.
.	8e-	8cc	.
=67	=67	=67	=67
8BB-	4.f	4.dd	2bb-_
8B-	.	.	.
8BB-	.	.	.
8r	8g	8ee-	.
=68	=68	=68	=68
4.r	8a-	8ff	2bb-_
.	8f	8dd	.
.	8f	8dd	.
8BB-	8e-	8ee-	.
=69	=69	=69	=69
4.A-	[2d	[2ff	2bb-_
8F	.	.	.
=70	=70	=70	=70
8D	2d_	2ff_	2bb-_
8BB-	.	.	.
8AA-	.	.	.
8FF	.	.	.
=71	=71	=71	=71
4DD	4d]	4ff]	8bb-]
.	.	.	8aa-
4r	4r	4r	8ff
.	.	.	8dd
=72	=72	=72	=72
2r	2r	2r	8b-
.	.	.	8a-
.	.	.	8f
.	.	.	8d
=73	=73	=73	=73
2r	2r	2r	2c-
=74	=74	=74	=74
2r	2r	2r	4B-
.	.	.	8r
.	.	.	8B-
=75	=75	=75	=75
2D-	8r	8r	4.e-
.	8G	8B-	.
.	8G	8B-	.
.	8F	8A-	8f
=76	=76	=76	=76
2r	4E-	4G	8g
.	.	.	8e-
.	4r	4r	8e-
.	.	.	8g
=77	=77	=77	=77
2C	8r	8r	4.a-
.	8c	8e-	.
.	8c	8e-	.
.	8B-	8d-	8b-
=78	=78	=78	=78
2r	4A-	4c	8cc
.	.	.	8a-
.	4r	4r	8a-
.	.	.	8a
=79	=79	=79	=79
2r	8r	8r	4.b-
.	8d	8a-	.
.	8e-	8g	.
.	8r	8r	8cc
=80	=80	=80	=80
2r	8r	8r	8dd-
.	8d	8a-	8b-
.	8e-	8g	8b-
.	8r	8r	8b
=81	=81	=81	=81
[2AA-	8r	8r	4.cc
.	8e-	8g-	.
.	8e-	8g-	.
.	8d-	8f	8dd-
=82	=82	=82	=82
2AA-_	8c	8e-	8ee-
.	8e-	8g-	8cc
.	8e-	8g-	8cc
.	8c	8e-	8ee-
=83	=83	=83	=83
2AA-_	8d-	8d-	8ff
.	8f	8a-	8dd-
.	8f	8a-	8dd-
.	8d-	8f	8ff
=84	=84	=84	=84
2AA-_	8c	8e-	8gg-
.	8e-	8g-	8ee-
.	8d-	8f	8ff
.	8f	8d-	8dd-
=85	=85	=85	=85
2AA-_	[2A-	[2a-	[2a-
=86	=86	=86	=86
4AA-]	4A-]	4a-]	4a-]
4GG-	4G-	4g-	4g-
=87	=87	=87	=87
8FF	8F	[2f	4f
4F	4A	.	.
.	.	.	[4ff
8G	8B-	.	.
=88	=88	=88	=88
8A	8c	2f]	4ff]
8F	8A	.	.
8F	8A	.	4ee-
8A	8c	.	.
=89	=89	=89	=89
4B-	2B-	8r	4.dd-
.	.	8e	.
4r	.	8f	.
.	.	8dd-	8ff
=90	=90	=90	=90
4F	4.c	8r	4.a
.	.	8g-	.
4r	.	8f	.
.	8A	8cc	8ee-
=91	=91	=91	=91
4BB-	2B-	8r	4.dd-
.	.	8e	.
4r	.	8f	.
.	.	8dd-	8ff
=92	=92	=92	=92
4FF	4.c	8r	4.a
.	.	8g-	.
4r	.	8f	.
.	8A	8cc	8ee-
=93	=93	=93	=93
[2B-	4.f	4.a-	8dd
.	.	.	8ee-
.	.	.	8dd
.	8a-	8d	8ccc-
=94	=94	=94	=94
2B-_	4.e-	4.g-	8r
.	.	.	8dd
.	.	.	8ee-
.	8g-	8e-	8bb-
=95	=95	=95	=95
2B-_	4.f	4.a-	8r
.	.	.	8ee-
.	.	.	8dd
.	8a-	8d	8ccc-
=96	=96	=96	=96
2B-]	4.e-	4.g-	8r
.	.	.	8dd
.	.	.	8ee-
.	8g-	8e-	8bb-
=97	=97	=97	=97
[2A-	4.e-	4.g-	8r
.	.	.	8dd-
.	.	.	8cc
.	8g-	8c	8bb-
=98	=98	=98	=98
2A-]	4.d-	4.f	8r
.	.	.	8cc
.	.	.	8dd-
.	8f	8d-	8aa-
=99	=99	=99	=99
[2G-	4.d-	4.f	8r
.	.	.	8cc
.	.	.	8b-
.	8f	8d-	8aa-
=100	=100	=100	=100
2G-]	4.c	4.e-	8r
.	.	.	8b-
.	.	.	8cc
.	8e-	8c	8gg-
=101	=101	=101	=101
2F	4.c	4.e-	8r
.	.	.	8b-
.	.	.	8a
.	8e-	8A	8gg-
=102	=102	=102	=102
2D-	4d-	2B-	8r
.	.	.	8a
.	4B-	.	8b-
.	.	.	8ff
=103	=103	=103	=103
8C	2g	2b-	4.ee
8D-	.	.	.
8C	.	.	.
8G	.	.	8cc
=104	=104	=104	=104
8r	2f	2a-	4.ff
8BB	.	.	.
8C	.	.	.
8F	.	.	8cc
=105	=105	=105	=105
8r	2e	2gg	4.bb-
8D-	.	.	.
8C	.	.	.
8E	.	.	8cc
=106	=106	=106	=106
8r	[2f	2ff	4.aa-
8BB	.	.	.
8C	.	.	.
8F	.	.	8cc
=107	=107	=107	=107
8r	2f]	2b	4.aa-
8BB	.	.	.
8D	.	.	.
8A-	.	.	8ff
=108	=108	=108	=108
8r	2B	4.f	4.aa-
8BB	.	.	.
8D	.	.	.
8B	.	8b	8b
=109	=109	=109	=109
8c	8c	8cc	4cc
8B	8B	8b	.
8c	8c	8cc	4r
8d-	8d-	8dd-	.
=110	=110	=110	=110
8c	8c	8cc	4.r
8B-	8B-	8b-	.
8A-	8A-	8a-	.
8G	8G	8g	8cc
=111	=111	=111	=111
4F	8F	8f	4.ff
.	8a-	8cc	.
4r	8a-	8cc	.
.	8g	8b-	8gg
=112	=112	=112	=112
2r	4f	4a-	8aa-
.	.	.	8ff
.	4r	4r	8ff
.	.	.	8ff#
=113	=113	=113	=113
[2e	8r	8r	4.gg
.	8b-	8dd-	.
.	8b-	8dd-	.
.	8a-	8cc	8aa-
=114	=114	=114	=114
2e]	4g	4b-	8bb-
.	.	.	8gg
.	4r	4r	8gg
.	.	.	8bb-
=115	=115	=115	=115
[2f	4.cc	4.ee-	[2aa
.	8dd-	8ff	.
=116	=116	=116	=116
4.f]	8ee-	8gg-	4.aa]
.	8cc	8ee-	.
.	8cc	8ee-	.
8g-	8cc	8ee-	8bb-
=117	=117	=117	=117
[2f	4.cc	4.ee-	[2aa
.	8dd-	8ff	.
=118	=118	=118	=118
4.f]	8ee-	8gg-	4.aa]
.	8cc	8ee-	.
.	8cc	8ee-	.
8g-	8cc	8ee-	8bb-
=119	=119	=119	=119
[2f	[2cc	[2ee-	[2aa
=120	=120	=120	=120
4f]	4cc]	4ee-]	4aa]
4f	4cc	4ee-	4aa
=121	=121	=121	=121
[2f	[2cc-	[2dd	4.aa-
.	.	.	8bb-
=122	=122	=122	=122
2f]	2cc-_	2dd_	8ccc-
.	.	.	8aa-
.	.	.	8aa-
.	.	.	8aa-
=123	=123	=123	=123
[2f-	2cc-_	2dd_	4.aa-
.	.	.	8bb-
=124	=124	=124	=124
2f-]	2cc-]	2dd]	8ccc-
.	.	.	8aa-
.	.	.	8aa-
.	.	.	8aa-
=125	=125	=125	=125
[2e-	4.b-	4.dd-	4.gg
.	8a-	8cc	8aa-
=126	=126	=126	=126
2e-_	8g	8b-	8bb-
.	8b-	8dd-	8gg
.	8b-	8dd-	8gg
.	8g	8b-	8bb-
=127	=127	=127	=127
2e-_	4.cc	4.ee-	4.aa-
.	8b-	8dd-	8bb-
=128	=128	=128	=128
2e-_	8a-	8cc	8ccc
.	8cc	8ee-	8aa-
.	8cc	8ee-	8aa-
.	8a-	8cc	8ccc
=129	=129	=129	=129
2e-_	4.g	4.dd-	4.bb-
.	8a-	8cc	8ccc
=130	=130	=130	=130
2e-]	8b-	8b-	8ddd-
.	8g	8dd-	8bb-
.	8g	8dd-	8bb-
.	8b-	8b-	8ddd-
=131	=131	=131	=131
[2A-	8e-	4cc	4.ccc
.	4e-	.	.
.	.	4r	.
.	8e	.	8bb-
=132	=132	=132	=132
8A-]	2f	2r	8aa-
4A-	.	.	8gg
.	.	.	8ff
8A	.	.	8ee-
=133	=133	=133	=133
8B-	4.d	4.b-	[2bb-
8BB-	.	.	.
8BB-	.	.	.
8r	8e-	8cc	.
=134	=134	=134	=134
2r	8f	8dd	2bb-_
.	8d	8b-	.
.	8d	8b-	.
.	8e-	8cc	.
=135	=135	=135	=135
8BB-	4.f	4.dd	2bb-_
8B-	.	.	.
8BB-	.	.	.
8r	8g	8ee-	.
=136	=136	=136	=136
4.r	8a-	8ff	2bb-_
.	8f	8dd	.
.	8f	8dd	.
8BB-	8e-	8ee-	.
=137	=137	=137	=137
4.A-	[2d	[2ff	2bb-_
8F	.	.	.
=138	=138	=138	=138
8D	2d_	2ff_	2bb-_
8BB-	.	.	.
8AA-	.	.	.
8FF	.	.	.
=139	=139	=139	=139
4DD	4d]	4ff]	8bb-]
.	.	.	8aa-
4r	4r	4r	8ff
.	.	.	8dd
=140	=140	=140	=140
2r	2r	2r	8b-
.	.	.	8a-
.	.	.	8f
.	.	.	8d
=141	=141	=141	=141
2r	2r	2r	2c-
=142	=142	=142	=142
2r	2r	2r	4B-
.	.	.	8r
.	.	.	8B-
=143	=143	=143	=143
4E-	8r	8r	4.e-
.	8A-	8c	.
4r	8G	8B-	.
.	8r	8r	8f
=144	=144	=144	=144
4E-	8r	8r	8g
.	8A-	8c-	8e-
4r	8G	8B-	8e-
.	8r	8r	8e
=145	=145	=145	=145
4BB-	8r	8r	4.f
.	8A	8c#	.
4r	8B-	8d	.
.	8r	8r	8g
=146	=146	=146	=146
4BB-	8r	8r	8a-
.	8c-	8e-	8f
4r	8B-	8d	8f
.	8r	8r	8f#
=147	=147	=147	=147
4.E-	4.r	8r	4.g
.	.	8A	.
.	.	8B-	.
8E-	8G	8g	8b-
=148	=148	=148	=148
4.F	4A-	8r	4.d
.	.	8c-	.
.	8r	8B-	.
8BB-	8D	8f	8a-
=149	=149	=149	=149
4.E-	4E-	8r	4.g
.	.	8A	.
.	8r	8B-	.
8E-	8G	8g	8b-
=150	=150	=150	=150
4.F	4A-	8r	4.d
.	.	8c-	.
.	8r	8B-	.
8BB-	8d	8f	8a-
=151	=151	=151	=151
8E-	8e-	8r	8g
8r	8e-	8g	8r
8C	8r	8r	8a-
8r	8e-	8a-	8r
=152	=152	=152	=152
8GG	8r	8r	8b-
8r	8e-	8b-	8r
8AA-	8r	8r	8.cc
8r	8e-	8cc	.
.	.	.	32dd
.	.	.	32ee-
=153	=153	=153	=153
[2BB-	[2B-	4.e-	4.g
.	.	16f	16a-
.	.	16e-	16g
=154	=154	=154	=154
4BB-]	4B-]	4d	4f
4r	4r	4r	8r
.	.	.	8b-
=155	=155	=155	=155
4r	4r	4r	8ee-
.	.	.	8ee-
4e-	4g	4b-	8r
.	.	.	8ff
=156	=156	=156	=156
4r	4r	4r	8gg
.	.	.	8ee-
4e-	4g	4b-	8r
.	.	.	8ee
=157	=157	=157	=157
4r	4r	4r	8ff
.	.	.	8ff
4B-	4f	4dd	8r
.	.	.	8gg
=158	=158	=158	=158
4r	4r	4r	8aa-
.	.	.	8ff
4B-	4f	4dd	8r
.	.	.	8ff#
=159	=159	=159	=159
4r	4r	4r	8gg
.	.	.	8gg
4e-	4e-	4b- 4g	8r
.	.	.	8bb-
=160	=160	=160	=160
4r	4r	4r	8dd
.	.	.	8dd
4B-	4d	4b- 4f	8r
.	.	.	8aa-
=161	=161	=161	=161
4r	4r	4r	8gg
.	.	.	8gg
4e-	4e-	4b- 4g	8r
.	.	.	8bb-
=162	=162	=162	=162
4r	4r	4r	8dd
.	.	.	8dd
4B-	4d	4b- 4f	8r
.	.	.	8aa-
=163	=163	=163	=163
8e-	8e-	8b-	8r
8r	8r	8r	8gg
8c	8e-	8e-	8r
8r	8r	8r	8aa-
=164	=164	=164	=164
8G	8e-	8e-	8r
8r	8r	8r	8bb-
8A-	8e-	8e-	8r
8r	8r	8r	8ccc
=165	=165	=165	=165
[2G	[2b-	[2e-	8ddd-
.	.	.	16ddd-
.	.	.	16ccc
.	.	.	8bb-
.	.	.	16bb-
.	.	.	16aa-
=166	=166	=166	=166
2G]	2b-]	2e-_	8gg
.	.	.	16gg
.	.	.	16ff
.	.	.	8ee-
.	.	.	16ee-
.	.	.	16dd-
=167	=167	=167	=167
[2A-	2cc	4e-]	8cc
.	.	.	16ccc
.	.	.	16bb-
.	.	4e	8aa-
.	.	.	16aa-
.	.	.	16gg
=168	=168	=168	=168
4A-]	2c	[2f	8ff
.	.	.	16aa-
.	.	.	16gg
4A	.	.	8ff
.	.	.	16ff
.	.	.	16ee-
=169	=169	=169	=169
4B-	4B-	8f]	8dd
.	.	4dd	4ff
4r	8d	.	.
.	8c	8ee-	8gg
=170	=170	=170	=170
2r	4B-	8ff	8aa-
.	.	8dd	8ff
.	4r	8dd	8ff
.	.	8dd	8ff#
=171	=171	=171	=171
8r	4r	4.ee-	4.gg
8A	.	.	.
8B-	8g	.	.
8r	8f	8ff	8aa-
=172	=172	=172	=172
2r	4e-	8gg	8bb-
.	.	8ee-	8gg
.	4r	8ee-	8gg
.	.	8ee-	8gg
=173	=173	=173	=173
8r	4r	4.ff	4.aa-
8A	.	.	.
8B-	8f	.	.
8r	8e-	8gg	8bb-
=174	=174	=174	=174
2r	4d	8aa-	8ccc
.	.	8ff	8aa-
.	8r	8ff	8aa-
.	8b-	8ff	8aa-
=175	=175	=175	=175
2r	8cc	4ff	2gg
.	8g	.	.
.	8g	[4ee-	.
.	8a-	.	.
=176	=176	=176	=176
2r	8b-	4ee-]	2ff
.	8f	.	.
.	8f	[4dd	.
.	8g	.	.
=177	=177	=177	=177
8r	4a-	4dd]	2ee-
8E-	.	.	.
8E-	4r	[4cc	.
8F	.	.	.
=178	=178	=178	=178
8G	2r	4cc]	2dd
8D	.	.	.
8D	.	[4b-	.
8E-	.	.	.
=179	=179	=179	=179
8F	2r	4b-]	2cc
8C	.	.	.
8C	.	[4a-	.
8D	.	.	.
=180	=180	=180	=180
8E-	4r	4a-]	4b-
8D	.	.	.
8C	[4c	4g	[4ee-
8BB-	.	.	.
=181	=181	=181	=181
8AA-	4c]	2f	4ee-]
8FF	.	.	.
8BB-	4B-	.	4dd
8BB-	.	.	.
=182	=182	=182	=182
4.C	4A	4.e-	2ee-
.	4r	.	.
8D	.	8f	.
=183	=183	=183	=183
8E-	2r	8g-	2a
8C	.	8e-	.
8C	.	8e-	.
8C	.	8e-	.
=184	=184	=184	=184
4.BB-	4.a-	4.d	2ff
8C	8g	8e-	.
=185	=185	=185	=185
8D	8f	8f	2a-
8BB-	8f	8d	.
8BB-	8f	8d	.
8BB-	8f	8d	.
=186	=186	=186	=186
8E-	8B-	8e-	8g
8r	8r	8r	8r
8AA-	8A-	8c	8f
8r	8r	8r	8r
=187	=187	=187	=187
8BB-	8G	8B-	8e-
8r	8r	8r	8r
8BB-	8F	8A-	8d
8r	8r	8r	8r
=188	=188	=188	=188
4.c	4.a	4.e-	2eee-
8d	8b-	8f	.
=189	=189	=189	=189
8e-	4cc	8g-	2aa
8c	.	8e-	.
8c	4r	8e-	.
8c	.	8e-	.
=190	=190	=190	=190
4.B-	4.a-	4.d	2fff
8c	8g	8e-	.
=191	=191	=191	=191
8d	8f	8f	2aa-
8B-	8f	8d	.
8B-	8f	8d	.
8B-	8f	8d	.
=192	=192	=192	=192
8e-	8g	8e-	8gg
8r	8r	8r	8r
8A-	8a-	8cc	8ff
8r	8r	8r	8r
=193	=193	=193	=193
8B-	8g	8b-	8ee-
8r	8r	8r	8r
8BB-	8f	8a-	8dd
8r	8r	8r	8r
=194	=194	=194	=194
[2EE-	4.e-	4.g	2ee-
.	8f	8a-	.
=195	=195	=195	=195
2EE-_	8g	8b-	2dd-
.	8e-	8g	.
.	8e-	8g	.
.	8B-	8b-	.
=196	=196	=196	=196
2EE-_	4.c	4.a-	[2cc
.	8B-	8b-	.
=197	=197	=197	=197
2EE-_	8A-	8cc	2cc]
.	8c	8a-	.
.	8c	8a-	.
.	8A-	8cc	.
=198	=198	=198	=198
2EE-_	4.F	4.d	[2A-
.	8E-	8e-	.
=199	=199	=199	=199
2EE-_	8D	8f	2A-]
.	8F	8d	.
.	8F	8d	.
.	8D	8f	.
=200	=200	=200	=200
4EE-]	4E-	4e-	4G
4r	4r	4r	4r
=201	=201	=201	=201
4EE-	4B-	4e- 4G	4e- 4G
4EE-	4B-	4e- 4G	4e- 4G
=202	=202	=202	=202
4EE-	4B-	4e- 4G	4e- 4G
4r	4r	4r	4r
=203	=203	=203	=203
2r	2r	2r	2r
==	==	==	==
*-	*-	*-	*-
!!!RWG1: This file contains only pitch and duration data.
!!!RWG2: Transposing instruments are not transposed.
!!!RWG3: Spines may have incompatible meters.
!!!RWG4: Durations of rests and tied notes may be interpreted.
!!!RWG: Key is interpreted using the Humdrum key tool.
!!!GTL: 6 Quartetti ("Prussian")
!!!AFT: stage1
!!!END: 1997/04/15
!!!KEY: 1592012911
!!!EMD: Converted from MuseData to Humdrum Dec 16, 2000, by Andreas Kornstaedt using muse2kern.
!!!EMD: Manual editing by Craig Sapp, Nov 2001
